X:1
T:The Huntsmen's Chorus
R:reel
C: New England
C: From John Chambers; adapted by T. Traub 5-20-02
Z: John Chambers <jc@trillian.mit.edu>, mods by T. Traub 5-20-02
M: C
L:1/4
K:G
|: D | "G"G D G/A/B/c/ | "G"d2 B c/B/ | "D7"A d A d | "G"B/c/B/A/ G D \
| "G"G D G/A/B/c/ | "G"d2 "C"c2 | "G"B/A/G/A/ "D7"BA | "G"G3 :|
|: A | "G (B7)"B>B BA | "Em"G2 AB | "Am"c>c c B | "D7"A F E D \
| "G"B B/A/ G/A/B/c/ | "G"d2 "C"c2 | "G"B/A/G/A/ "D7"BA | "G"G3 :|
